svg/emoji_u1f515.svg

<?xml version="1.0" encoding="UTF-8"?>
<svg width="128" height="128" enable-background="new 0 0 128 128" xmlns="http://www.w3.org/2000/svg"><linearGradient id="f" x1="64" x2="64" y1="8.25" y2="120.13" gradientUnits="userSpaceOnUse"><stop stop-color="#616161" offset="0"/><stop stop-color="#515151" offset=".3054"/><stop stop-color="#292929" offset=".8963"/><stop stop-color="#212121" offset="1"/></linearGradient><circle cx="64" cy="64" r="56" fill="url(#f)"/><g opacity=".2"><path d="m64 17c25.92 0 47 21.08 47 47s-21.08 47-47 47-47-21.08-47-47 21.08-47 47-47m0-3c-27.61 0-50 22.39-50 50s22.39 50 50 50 50-22.39 50-50-22.39-50-50-50z" fill="#424242"/></g><g opacity=".2"><path d="m64 22c2.8 0 5.07 2.27 5.07 5.07 0 0.03-0.01 0.05-0.01 0.08 7.39 0.65 20.27 4.1 20.27 20.19 0 22.56 7.6 32.93 7.6 32.93h1.27c2.09 0 3.8 1.71 3.8 3.8s-1.71 3.8-3.8 3.8h-27.04c0.28 0.79 0.44 1.64 0.44 2.53 0 4.2-3.4 7.6-7.6 7.6s-7.6-3.4-7.6-7.6c0-0.89 0.16-1.74 0.44-2.53h-27.04c-2.09 0-3.8-1.71-3.8-3.8s1.71-3.8 3.8-3.8h1.27s7.6-10.38 7.6-32.93c0-16.09 12.88-19.53 20.27-20.19 0-0.03-0.01-0.05-0.01-0.08 0-2.8 2.27-5.07 5.07-5.07m0-3c-3.52 0-6.53 2.27-7.62 5.43-13.2 1.95-20.71 10.19-20.71 22.91 0 16.93-4.48 26.69-6.29 29.95-3.55 0.21-6.38 3.17-6.38 6.78 0 3.75 3.05 6.8 6.8 6.8h23.61c0.25 5.63 4.9 10.13 10.59 10.13s10.34-4.5 10.59-10.13h23.61c3.75 0 6.8-3.05 6.8-6.8 0-3.61-2.83-6.57-6.38-6.79-1.8-3.24-6.28-13-6.28-29.95 0-12.71-7.51-20.96-20.71-22.91-1.1-3.15-4.11-5.42-7.63-5.42z" fill="#424242"/></g><radialGradient id="e" cx="64.113" cy="99.359" r="13.964" gradientTransform="matrix(.9373 0 0 .9373 4.0101 3.8114)" gradientUnits="userSpaceOnUse"><stop stop-color="#FFA000" offset="0"/><stop stop-color="#FF8F00" offset=".7434"/><stop stop-color="#FF8F00" offset="1"/></radialGradient><circle cx="64" cy="90.4" r="7.6" fill="url(#e)"/><radialGradient id="d" cx="63.831" cy="15.688" r="11.928" gradientTransform="matrix(.9373 0 0 .9373 4.0101 3.8114)" gradientUnits="userSpaceOnUse"><stop stop-color="#FFD740" offset="0"/><stop stop-color="#FFD43C" offset=".203"/><stop stop-color="#FFCB2F" offset=".4162"/><stop stop-color="#FFBD1A" offset=".6332"/><stop stop-color="#FFAB00" offset=".8336"/><stop stop-color="#FFAB00" offset="1"/></radialGradient><circle cx="64" cy="27.07" r="5.07" fill="url(#d)"/><g opacity=".2"><path d="m64 84.8c3.09 0 5.6 2.51 5.6 5.6s-2.51 5.6-5.6 5.6-5.6-2.51-5.6-5.6 2.51-5.6 5.6-5.6m0-2c-4.2 0-7.6 3.4-7.6 7.6s3.4 7.6 7.6 7.6 7.6-3.4 7.6-7.6-3.4-7.6-7.6-7.6z" fill="#424242"/></g><g opacity=".2"><path d="M64,24c1.69,0,3.07,1.38,3.07,3.07s-1.38,3.07-3.07,3.07s-3.07-1.38-3.07-3.07S62.31,24,64,24 M64,22c-2.8,0-5.07,2.27-5.07,5.07s2.27,5.07,5.07,5.07s5.07-2.27,5.07-5.07S66.8,22,64,22L64,22z" fill="#424242"/></g><radialGradient id="c" cx="63.887" cy="24.247" r="69.921" gradientTransform="matrix(.9373 0 0 .9373 4.0101 3.8114)" gradientUnits="userSpaceOnUse"><stop stop-color="#FFD740" offset="0"/><stop stop-color="#FFD43C" offset=".203"/><stop stop-color="#FFCB2F" offset=".4162"/><stop stop-color="#FFBD1A" offset=".6332"/><stop stop-color="#FFAB00" offset=".8336"/><stop stop-color="#FFAB00" offset="1"/></radialGradient><path d="m89.33 47.33c0-22.55-25.33-20.26-25.33-20.26s-25.33-2.29-25.33 20.27-7.6 32.93-7.6 32.93h65.86s-7.6-10.38-7.6-32.94z" fill="url(#c)"/><path d="m98.2 87.87h-68.4c-2.09 0-3.8-1.71-3.8-3.8s1.71-3.8 3.8-3.8h68.4c2.09 0 3.8 1.71 3.8 3.8s-1.71 3.8-3.8 3.8z" fill="#FFD740"/><g opacity=".2"><path d="m65.92 29c6.44 0 21.41 1.79 21.41 18.33 0 22.95 7.66 33.67 7.99 34.12l0.6 0.82h2.28c0.99 0 1.8 0.81 1.8 1.8s-0.81 1.8-1.8 1.8h-68.4c-0.99 0-1.8-0.81-1.8-1.8s0.81-1.8 1.8-1.8h2.28l0.6-0.82c0.33-0.45 7.99-11.17 7.99-34.12 0-7.24 2.84-12.44 8.43-15.43 4.71-2.52 10.15-2.9 12.98-2.9 1.08 0 1.74 0.06 1.74 0.06l0.18 0.01 0.18-0.02c0 0.01 0.66-0.05 1.74-0.05m0-2c-1.2 0-1.92 0.07-1.92 0.07s-0.72-0.07-1.92-0.07c-5.91 0-23.41 1.58-23.41 20.33 0 22.56-7.6 32.93-7.6 32.93h-1.27c-2.09 0-3.8 1.71-3.8 3.8s1.71 3.8 3.8 3.8h68.4c2.09 0 3.8-1.71 3.8-3.8s-1.71-3.8-3.8-3.8h-1.27s-7.6-10.38-7.6-32.93c0-18.75-17.5-20.33-23.41-20.33z" fill="#424242"/></g><radialGradient id="b" cx="64.338" cy="85.507" r="52.478" gradientTransform="matrix(.9373 0 0 .9373 4.0101 3.8114)" gradientUnits="userSpaceOnUse"><stop stop-color="#FFD740" offset="0"/><stop stop-color="#FFD43C" offset=".2435"/><stop stop-color="#FFCB2F" offset=".4992"/><stop stop-color="#FFBD1A" offset=".7596"/><stop stop-color="#FFAB00" offset="1"/></radialGradient><path d="m98.2 87.87h-68.4c-2.09 0-3.8-1.71-3.8-3.8s1.71-3.8 3.8-3.8h68.4c2.09 0 3.8 1.71 3.8 3.8s-1.71 3.8-3.8 3.8z" fill="url(#b)"/><g opacity=".2"><path d="m98.2 82.27c0.99 0 1.8 0.81 1.8 1.8s-0.81 1.8-1.8 1.8h-68.4c-0.99 0-1.8-0.81-1.8-1.8s0.81-1.8 1.8-1.8h68.4m0-2h-68.4c-2.09 0-3.8 1.71-3.8 3.8s1.71 3.8 3.8 3.8h68.4c2.09 0 3.8-1.71 3.8-3.8s-1.71-3.8-3.8-3.8z" fill="#424242"/></g><linearGradient id="a" x1="64" x2="64" y1="4" y2="124.13" gradientUnits="userSpaceOnUse"><stop stop-color="#FF5252" offset="0"/><stop stop-color="#F33B3B" offset=".324"/><stop stop-color="#D50000" offset="1"/></linearGradient><path d="M64,4C30.86,4,4,30.86,4,64s26.86,60,60,60s60-26.86,60-60S97.14,4,64,4z M114,64 c0,11.99-4.24,23-11.3,31.62L32.38,25.3C41,18.24,52.01,14,64,14C91.57,14,114,36.43,114,64z M14,64c0-11.99,4.24-23,11.3-31.62 l70.32,70.32C87,109.76,75.99,114,64,114C36.43,114,14,91.57,14,64z" fill="url(#a)"/><g opacity=".2"><path d="M64,7c31.43,0,57,25.57,57,57s-25.57,57-57,57S7,95.43,7,64S32.57,7,64,7 M64,4 C30.86,4,4,30.86,4,64s26.86,60,60,60s60-26.86,60-60S97.14,4,64,4L64,4z" fill="#424242"/></g></svg>

<svg width="128" height="128" style="enable-background:new 0 0 128 128;" xmlns="http://www.w3.org/2000/svg" xmlns:xlink="http://www.w3.org/1999/xlink">
  <linearGradient id="SVGID_1_" gradientUnits="userSpaceOnUse" x1="64" x2="64" y1="8.25" y2="120.1294">
    <stop offset="0" style="stop-color:#616161"/>
    <stop offset="0.3054" style="stop-color:#515151"/>
    <stop offset="0.8963" style="stop-color:#292929"/>
    <stop offset="1" style="stop-color:#212121"/>
  </linearGradient>
  <circle cx="64" cy="64" r="56" style="fill:url(#SVGID_1_);"/>
  <g style="opacity:0.2;">
    <path d="M64,17c25.92,0,47,21.08,47,47s-21.08,47-47,47S17,89.92,17,64S38.08,17,64,17 M64,14 c-27.61,0-50,22.39-50,50s22.39,50,50,50s50-22.39,50-50S91.61,14,64,14L64,14z" style="fill:#424242;"/>
  </g>
  <g style="opacity:0.2;">
    <path d="M64,22c2.8,0,5.07,2.27,5.07,5.07c0,0.03-0.01,0.05-0.01,0.08c7.39,0.65,20.27,4.1,20.27,20.19 c0,22.56,7.6,32.93,7.6,32.93h1.27c2.09,0,3.8,1.71,3.8,3.8s-1.71,3.8-3.8,3.8H71.16c0.28,0.79,0.44,1.64,0.44,2.53 c0,4.2-3.4,7.6-7.6,7.6s-7.6-3.4-7.6-7.6c0-0.89,0.16-1.74,0.44-2.53H29.8c-2.09,0-3.8-1.71-3.8-3.8s1.71-3.8,3.8-3.8h1.27 c0,0,7.6-10.38,7.6-32.93c0-16.09,12.88-19.53,20.27-20.19c0-0.03-0.01-0.05-0.01-0.08C58.93,24.27,61.2,22,64,22 M64,19 c-3.52,0-6.53,2.27-7.62,5.43c-13.2,1.95-20.71,10.19-20.71,22.91c0,16.93-4.48,26.69-6.29,29.95C25.83,77.5,23,80.46,23,84.07 c0,3.75,3.05,6.8,6.8,6.8h23.61C53.66,96.5,58.31,101,64,101s10.34-4.5,10.59-10.13H98.2c3.75,0,6.8-3.05,6.8-6.8 c0-3.61-2.83-6.57-6.38-6.79c-1.8-3.24-6.28-13-6.28-29.95c0-12.71-7.51-20.96-20.71-22.91C70.53,21.27,67.52,19,64,19L64,19z" style="fill:#424242;"/>
  </g>
  <radialGradient id="SVGID_2_" cx="64.1126" cy="99.3586" gradientTransform="matrix(0.9373 0 0 0.9373 4.0101 3.8114)" gradientUnits="userSpaceOnUse" r="13.9638">
    <stop offset="0" style="stop-color:#FFA000"/>
    <stop offset="0.7434" style="stop-color:#FF8F00"/>
    <stop offset="1" style="stop-color:#FF8F00"/>
  </radialGradient>
  <circle cx="64" cy="90.4" r="7.6" style="fill:url(#SVGID_2_);"/>
  <radialGradient id="SVGID_3_" cx="63.8311" cy="15.6882" gradientTransform="matrix(0.9373 0 0 0.9373 4.0101 3.8114)" gradientUnits="userSpaceOnUse" r="11.9275">
    <stop offset="0" style="stop-color:#FFD740"/>
    <stop offset="0.203" style="stop-color:#FFD43C"/>
    <stop offset="0.4162" style="stop-color:#FFCB2F"/>
    <stop offset="0.6332" style="stop-color:#FFBD1A"/>
    <stop offset="0.8336" style="stop-color:#FFAB00"/>
    <stop offset="1" style="stop-color:#FFAB00"/>
  </radialGradient>
  <circle cx="64" cy="27.07" r="5.07" style="fill:url(#SVGID_3_);"/>
  <g style="opacity:0.2;">
    <path d="M64,84.8c3.09,0,5.6,2.51,5.6,5.6S67.09,96,64,96c-3.09,0-5.6-2.51-5.6-5.6S60.91,84.8,64,84.8 M64,82.8c-4.2,0-7.6,3.4-7.6,7.6S59.8,98,64,98s7.6-3.4,7.6-7.6S68.2,82.8,64,82.8L64,82.8z" style="fill:#424242;"/>
  </g>
  <g style="opacity:0.2;">
    <path d="M64,24c1.69,0,3.07,1.38,3.07,3.07s-1.38,3.07-3.07,3.07s-3.07-1.38-3.07-3.07S62.31,24,64,24 M64,22c-2.8,0-5.07,2.27-5.07,5.07s2.27,5.07,5.07,5.07s5.07-2.27,5.07-5.07S66.8,22,64,22L64,22z" style="fill:#424242;"/>
  </g>
  <radialGradient id="SVGID_4_" cx="63.8874" cy="24.2467" gradientTransform="matrix(0.9373 0 0 0.9373 4.0101 3.8114)" gradientUnits="userSpaceOnUse" r="69.921">
    <stop offset="0" style="stop-color:#FFD740"/>
    <stop offset="0.203" style="stop-color:#FFD43C"/>
    <stop offset="0.4162" style="stop-color:#FFCB2F"/>
    <stop offset="0.6332" style="stop-color:#FFBD1A"/>
    <stop offset="0.8336" style="stop-color:#FFAB00"/>
    <stop offset="1" style="stop-color:#FFAB00"/>
  </radialGradient>
  <path d="M89.33,47.33C89.33,24.78,64,27.07,64,27.07s-25.33-2.29-25.33,20.27s-7.6,32.93-7.6,32.93H64 h32.93C96.93,80.27,89.33,69.89,89.33,47.33z" style="fill:url(#SVGID_4_);"/>
  <path d="M98.2,87.87H29.8c-2.09,0-3.8-1.71-3.8-3.8v0c0-2.09,1.71-3.8,3.8-3.8h68.4c2.09,0,3.8,1.71,3.8,3.8 v0C102,86.16,100.29,87.87,98.2,87.87z" style="fill:#FFD740;"/>
  <g style="opacity:0.2;">
    <path d="M65.92,29c6.44,0,21.41,1.79,21.41,18.33c0,22.95,7.66,33.67,7.99,34.12l0.6,0.82h1.01h1.27 c0.99,0,1.8,0.81,1.8,1.8c0,0.99-0.81,1.8-1.8,1.8H29.8c-0.99,0-1.8-0.81-1.8-1.8c0-0.99,0.81-1.8,1.8-1.8h1.27h1.01l0.6-0.82 c0.33-0.45,7.99-11.17,7.99-34.12c0-7.24,2.84-12.44,8.43-15.43c4.71-2.52,10.15-2.9,12.98-2.9c1.08,0,1.74,0.06,1.74,0.06 L64,29.07l0.18-0.02C64.18,29.06,64.84,29,65.92,29L65.92,29 M65.92,27c-1.2,0-1.92,0.07-1.92,0.07S63.28,27,62.08,27 c-5.91,0-23.41,1.58-23.41,20.33c0,22.56-7.6,32.93-7.6,32.93H29.8c-2.09,0-3.8,1.71-3.8,3.8c0,2.09,1.71,3.8,3.8,3.8h68.4 c2.09,0,3.8-1.71,3.8-3.8c0-2.09-1.71-3.8-3.8-3.8h-1.27c0,0-7.6-10.38-7.6-32.93C89.33,28.58,71.83,27,65.92,27L65.92,27z" style="fill:#424242;"/>
  </g>
  <radialGradient id="SVGID_5_" cx="64.3378" cy="85.5074" gradientTransform="matrix(0.9373 0 0 0.9373 4.0101 3.8114)" gradientUnits="userSpaceOnUse" r="52.4781">
    <stop offset="0" style="stop-color:#FFD740"/>
    <stop offset="0.2435" style="stop-color:#FFD43C"/>
    <stop offset="0.4992" style="stop-color:#FFCB2F"/>
    <stop offset="0.7596" style="stop-color:#FFBD1A"/>
    <stop offset="1" style="stop-color:#FFAB00"/>
  </radialGradient>
  <path d="M98.2,87.87H29.8c-2.09,0-3.8-1.71-3.8-3.8v0c0-2.09,1.71-3.8,3.8-3.8h68.4 c2.09,0,3.8,1.71,3.8,3.8v0C102,86.16,100.29,87.87,98.2,87.87z" style="fill:url(#SVGID_5_);"/>
  <g style="opacity:0.2;">
    <path d="M98.2,82.27c0.99,0,1.8,0.81,1.8,1.8c0,0.99-0.81,1.8-1.8,1.8H29.8c-0.99,0-1.8-0.81-1.8-1.8 s0.81-1.8,1.8-1.8H98.2 M98.2,80.27H29.8c-2.09,0-3.8,1.71-3.8,3.8v0c0,2.09,1.71,3.8,3.8,3.8h68.4c2.09,0,3.8-1.71,3.8-3.8v0 C102,81.98,100.29,80.27,98.2,80.27L98.2,80.27z" style="fill:#424242;"/>
  </g>
  <linearGradient id="SVGID_6_" gradientUnits="userSpaceOnUse" x1="64" x2="64" y1="4" y2="124.1303">
    <stop offset="0" style="stop-color:#FF5252"/>
    <stop offset="0.324" style="stop-color:#F33B3B"/>
    <stop offset="1" style="stop-color:#D50000"/>
  </linearGradient>
  <path d="M64,4C30.86,4,4,30.86,4,64s26.86,60,60,60s60-26.86,60-60S97.14,4,64,4z M114,64 c0,11.99-4.24,23-11.3,31.62L32.38,25.3C41,18.24,52.01,14,64,14C91.57,14,114,36.43,114,64z M14,64c0-11.99,4.24-23,11.3-31.62 l70.32,70.32C87,109.76,75.99,114,64,114C36.43,114,14,91.57,14,64z" style="fill:url(#SVGID_6_);"/>
  <g style="opacity:0.2;">
    <path d="M64,7c31.43,0,57,25.57,57,57s-25.57,57-57,57S7,95.43,7,64S32.57,7,64,7 M64,4 C30.86,4,4,30.86,4,64s26.86,60,60,60s60-26.86,60-60S97.14,4,64,4L64,4z" style="fill:#424242;"/>
  </g>
</svg>
